T: Flowers Of Edinburgh, The
M: 4/4
L: 1/8
K: Gmaj
D3 E G3 A | BGdG cBAG | FGFE DEFG | AFdF E3 F |D3 E G3 A | BGBd efge | dcBA GFGA | B2 G2 G2 :|gfga gbag | fdfg fagf | edef gfed | B2 e>f efge |dBGB B/c/d cB | egfa g2 fe | dcBA GFGA | B2 G2 G2 :||: d2 | ~ the usual, and then bars 4 & 5 ~ | B2 ef efge | dBGB d2 d2 | ~
